X:1
T:[ID 4-31r]
T:[ID 4-31r]
T:Bezeichnung standardisiert: Contratanz de Erbprinz; Engl. Conter Tantz 22 Erb Printz. [mit Trio] In dieser Quelle auch als: Engl. Conter Tantz de Erb Printz
T:Urheber unbekannt Datum in der hier transkribierten schriftlichen Quelle: 1775
C:Urheber unbekannt
C:Datum in der hier transkribierten schriftlichen Quelle: 1775
L:1/8
M:2/4
K:G
V:1 treble 
V:1
 B/A/G/F/ B,G | G2 FA | A2 GB | B2 G2 | cAGF | F2 E2 | FDEC | D4 :: BGDB, | BGDB, | B,FGA | B2 B2 | %12
 G2 B2 | B,2 F2 | GB,CA, | B,4 :|[M:3/4]"^Trio" !fermata!B,2 C2 | B,EDC | B,2 C2 | B,EDC | B,2 C2 | %21
 B,CDE | FGAG | G2 F2 :: B2 B2 | BGDB, | A2 A2 | AFDC | B,FGA | B2 B2 | G2 B2 | B,2 F2 | GB,CA, | %33
 B,4 :| %34

